X:1
T:Title
%%score { ( 1 3 ) | ( 2 4 ) }
L:1/8
Q:1/4=100
M:6/8
K:Ab
V:1 treble nm="Grand Piano"
V:3 treble 
V:2 bass 
V:4 bass 
V:1
 EFG ABc | e2 e c2 A | [FAd]3 [=EA]3 | [Ec]6 | EFG ABc | e2 e c2 A | z3 [=Dc]3 | B6 | EFG ABc | %9
w: Tullar~&~Meredith * * * * *|||||||||
 e2 e c2 A | [FAd]3 [=EA]3 | [Ec]6 | BAF BA[DF] | .[A,CE]2 [Ec] [Ee]2 [Fd] | [Ec]3 B3 | [A,CA]6 | %16
w: |||||||
 [CEAc]3 z3 | [DFAd] [CEAc]2 [CEA]3 | z2 A, [DFA]2 [=EB] | [Ec]6 | [CEAc]3 z3 | %21
w: |||||
 [DFAd] [CEAc]2 [CEA]3 | [=DB]3 z3 | [DEGB]6 | [CEAc]3 z3 | [DFAd] [CEAc]2 [CEA]3 | %26
w: |||||
 z2 A, [DFA]2 [FB] | c2- [Fc-] [=Ec]3 | B3 A2 F |[M:7/8] [CE] [CA]2 [Fd]3 [Ec] | %30
w: ||||
[M:3/4] [=DB]3 [DF]2 [_DG] | [CA]6 |] %32
w: ||
V:2
 [E,C][F,C][K:treble][G,CE] [A,CE][B,EG][CEA] | [EAc]2 [EAc] [CEA]2[K:bass] [A,CE] | %2
 [D,D]2 D, D,2 D, | [A,,A,]2 A,, .A,,3 | [E,C][F,C][K:treble][G,CE] [A,CE][B,EG][CEA] | %5
 [EAc]2 [EAc] [CEA]2[K:bass] [A,CE] | [B,,B,]2 [B,,B,] [B,,A,]2 B,, | [E,G,D]6 | %8
 [E,C][F,C][K:treble][G,CE] [A,CE][B,EG][CEA] | [EAc]2 [EAc] [CEA]2 [A,C_G] | [D,D]2 D, D,2 D, | %11
 [A,,A,]2 A,, .A,,3 | DD[D,A,D] DDD, | z A[A,,A,] [C,A,]2 [D,A,] | [E,A,]2 E, D2- [E,D] | A,,6 | %16
 [A,,E,A,]2 [A,,E,] [A,,F,]2 [A,,E,] | [A,,F,] [A,,E,]2 [A,,E,A,]3 | [D,A,]2 D, D,2 [D,A,] | %19
 [A,,A,]2 A,, .A,,3 | [A,,E,A,]2 [A,,E,] [A,,F,]2 [A,,E,] | [A,,F,] [A,,E,]2 [A,,E,A,]3 | %22
 [B,,A,]2 B,, B,,2 [B,,A,] | E,F,E, D,C,B,, | [A,,E,A,]2 [A,,E,] [A,,F,]2 [A,,E,] | %25
 [A,,F,] [A,,E,]2 [A,,E,A,]3 | [D,A,]2 D, D,2 [D,F,] | .G,3 z3 | [D,F,D]3 [D,F,D]2 [D,A,D] | %29
[M:7/8] [A,,A,] [A,,A,]2 [D,A,]3 [A,,A,] |[M:3/4] [B,,A,]3 [B,,A,]2 [E,B,] | [A,,A,]6 |] %32
V:3
 x6 | x6 | z2 D A,2 A, | z2 A, .A,3 | x6 | x6 | [=DF]3 z2 A, | x6 | x6 | x6 | z2 D A,2 A, | %11
 z2 A, .A,3 | x6 | x6 | z2 A, z2 G, | x6 | z2 A, [=DFA_c]2 [CEA=c] | x6 | [DF]3 z3 | z2 A, .A,3 | %20
 z2 A, [=DFA_c]2 [CEA=c] | x6 | z2 A, [A,=DF]2 [Dc] | x6 | z2 A, [=DFA_c]2 [CEA=c] | x6 | %26
 [DF]3 z3 | .=E3 z3 | x6 |[M:7/8] x7 |[M:3/4] x6 | x6 |] %32
V:4
 x2[K:treble] x4 | x5[K:bass] x | x6 | x6 | x2[K:treble] x4 | x5[K:bass] x | x6 | x6 | %8
 x2[K:treble] x4 | x6 | x6 | x6 | .[D,F,]3 .[D,F,]3 | .A,,3 z3 | z3 .[E,G,]3 | x6 | x6 | x6 | x6 | %19
 x6 | x6 | x6 | x6 | x6 | x6 | x6 | x6 | C,2- [C,-A,] [C,G,]3 | x6 |[M:7/8] x7 |[M:3/4] x6 | x6 |] %32

